X: 83
T: Ma bouche rit
N: Derived from Ock3011-Ma_bouche_rit.krn
C: Johannes Ockeghem
%%abc-version 2.0
%%abcx-abcm2ps-target-version 5.9.1 (29 Sep 2008)
%%abc-creator hum2abc beta
%%abcx-conversion-date 2019/02/17 07:26:16
%%abc-edited-by Jesse Rodin
%%abc-edited-by Chris Gage 06-25-2012
%%abcx-initial-encoding-date 2012/08/06/
%%humdrum-veritas 1995786471
%%humdrum-veritas-data 3167849823
%%linebreak <none>
%%barnumbers 0
L: 1/4
M: 4/2
Q: 1/2=120
V: 1 clef=treble
V: 2 clef=treble-8
V: 3 clef=treble-8
K: C
[V:1] A8 | 
[V:2] z8 | 
[V:3] A4A4 | 
[V:1] E4E4 | 
[V:2] z8 | 
[V:3] A4c4- | 
[V:1] A4A4 | 
[V:2] A8 | 
[V:3] c2A2c3d | 
[V:1] G4G4 | 
[V:2] E4E4 | 
[V:3] e8 | 
[V:1] c4c4 | 
[V:2] A4A4 | 
[V:3] e6c2 | 
[V:1] B4c2d2- | 
[V:2] G3FE2D2 | 
[V:3] d4z4 | 
[V:1] d2c2A4 | 
[V:2] G2A2c3B | 
[V:3] z4e4- | 
[V:1] B4E4 | 
[V:2] G4z4 | 
[V:3] e2dcc4- | 
[V:1] z4G4 | 
[V:2] e8 | 
[V:3] c4c4 | 
[V:1] A4B4 | 
[V:2] d6cB | 
[V:3] z4G4 | 
[V:1] c6BA | 
[V:2] A4A4 | 
[V:3] A4F4 | 
[V:1] B4E4 | 
[V:2] G4z2G2- | 
[V:3] z2G4C2- | 
[V:1] E4D4 | 
[V:2] G2A2B4 | 
[V:3] C2C2G4 | 
[V:1] E4F4 | 
[V:2] c4A4 | 
[V:3] z2C2D4 | 
[V:1] G6E2 | 
[V:2] G2E4C2 | 
[V:3] E2C4c2- | 
[V:1] F4E4 | 
[V:2] D4C4 | 
[V:3] c2B2c4 | 
[V:1] A4F2G2- | 
[V:2] z8 | 
[V:3] f4d2e2- | 
[V:1] G2E2D4 | 
[V:2] z8 | 
[V:3] edc4B2 | 
[V:1] C4z4 | 
[V:2] e4c2d2- | 
[V:3] c2A4G2- | 
[V:1] z4c4 | 
[V:2] d2B2A4 | 
[V:3] G2d2c2e2- | 
[V:1] B6G2 | 
[V:2] G4z2G2 | 
[V:3] e2d2B4 | 
[V:1] A4G3A | 
[V:2] c3de4 | 
[V:3] A3Bc4 | 
[V:1] B2ABc4 | 
[V:2] d3cA4 | 
[V:3] G4F4 | 
[V:1] B2G4A2- | 
[V:2] G4c4- | 
[V:3] z2E3CF2- | 
[V:1] A2G4^F2 | 
[V:2] c2B2A4 | 
[V:3] F2G2D4 | 
[V:1] G8 | 
[V:2] G4z2c2- | 
[V:3] z2E4C2 | 
[V:1] z4G4- | 
[V:2] c2d2e4 | 
[V:3] F3EC4 | 
[V:1] G4A4 | 
[V:2] c4f4 | 
[V:3] z8 | 
[V:1] G2c4B2 | 
[V:2] e2c2d4 | 
[V:3] C4G4 | 
[V:1] c4B2c2 | 
[V:2] c4z4 | 
[V:3] A4G4- | 
[V:1] d4c2A2- | 
[V:2] B4c4 | 
[V:3] G4z2A2 | 
[V:1] A2GFE4 | 
[V:2] d2d4^c2 | 
[V:3] F2G2A4 | 
[V:1] D2F2E4 | 
[V:2] d4z2c2 | 
[V:3] B2d3cA2 | 
[V:1] z2A2B2c2 | 
[V:2] d2f2e4 | 
[V:3] B2d4c2 | 
[V:1] d3cBAA2- | 
[V:2] d6c2 | 
[V:3] B2G4A2 | 
[V:1] A2^G2A4 | 
[V:2] B4A4 | 
[V:3] E4F2D2 | 
[V:1] z8 | 
[V:2] E3FG2A2 | 
[V:3] C2G2E2F2 | 
[V:1] z4E4 | 
[V:2] B4c4 | 
[V:3] D4C4 | 
[V:1] G2A2B4 | 
[V:2] B2c2d3c | 
[V:3] z8 | 
[V:1] c4B2c2 | 
[V:2] A4G2A2 | 
[V:3] e8 | 
[V:1] d3cA4 | 
[V:2] B2G2A2F2 | 
[V:3] d4z2d2 | 
[V:1] G4z2A2- | 
[V:2] E4D4 | 
[V:3] e2c2d4 | 
[V:1] A2GFE4 | 
[V:2] F4G2A2 | 
[V:3] c3AB2c2 | 
[V:1] D2E2FEDC | 
[V:2] B2c2A4 | 
[V:3] G2z2c3B/A/ | 
[V:1] B,2E4D2 | 
[V:2] E2G2F4 | 
[V:3] G2B4A2 | 
[V:1] !fermata!E8 ||  
[V:2] !fermata!E8 ||  
[V:3] !fermata!B8 ||  
[V:1] z8 | 
[V:2] B8 | 
[V:3] d6c2 | 
[V:1] z8 | 
[V:2] c4c4 | 
[V:3] A4A4 | 
[V:1] B8 | 
[V:2] d6c2 | 
[V:3] G8 | 
[V:1] c4c4 | 
[V:2] A4A4 | 
[V:3] c3de4 | 
[V:1] d4d4 | 
[V:2] D2G4A2 | 
[V:3] d4B2c2 | 
[V:1] G4A4 | 
[V:2] B4c3B | 
[V:3] d4e4 | 
[V:1] B4c3B | 
[V:2] G4z4 | 
[V:3] z2E4F2 | 
[V:1] G4z4 | 
[V:2] z4c4- | 
[V:3] G4C4 | 
[V:1] A8 | 
[V:2] c2F2F4- | 
[V:3] F8 | 
[V:1] A4A4 | 
[V:2] F4F4 | 
[V:3] c6A2- | 
[V:1] A6G2 | 
[V:2] F4C4- | 
[V:3] A2B2c4- | 
[V:1] E4E4 | 
[V:2] C4c4 | 
[V:3] c4C4 | 
[V:1] D4E4 | 
[V:2] B4c4 | 
[V:3] G3FE4 | 
[V:1] F4G4 | 
[V:2] d4B4 | 
[V:3] D4E4 | 
[V:1] E4C4 | 
[V:2] c4A4 | 
[V:3] C4F4 | 
[V:1] E2F2G4 | 
[V:2] z2A2G2c2- | 
[V:3] z8 | 
[V:1] E2F4D2 | 
[V:2] cBc2d2B2 | 
[V:3] z8 | 
[V:1] E4A,4 | 
[V:2] c3de4 | 
[V:3] C4c3d | 
[V:1] z4c4- | 
[V:2] A4z4 | 
[V:3] e4A4 | 
[V:1] c4c4 | 
[V:2] A8 | 
[V:3] z4e4 | 
[V:1] c4B4 | 
[V:2] A4G4 | 
[V:3] c4d4 | 
[V:1] c2d2c2BA |[1 
[V:2] A2G2c2d2 | 
[V:3] z2d2e4 | 
[V:1] !fermata!G3 :|][2 
[V:2] !fermata!e3 :|]  
[V:3] !fermata!E3 :|]  
[V:1] G3AB2c2- | 
[V:2] e4e4 | 
[V:3] E3FG2A2- | 
[V:1] c2BAc2B2 | 
[V:2] e4c2d2 | 
[V:3] A2G2A2B2 | 
[V:1] G2A4^G2 | 
[V:2] e2A2B4 | 
[V:3] E2F2E4 | 
[V:1] A8 ||  
[V:2] A8 ||  
[V:3] e8 ||  



